src/assets/light/file-code.svg

<svg height="16" viewBox="0 0 16 16" width="16" xmlns="http://www.w3.org/2000/svg"><path d="m3.5 15-.5-.5020264v-12.9979736l.5-.5h5.7l.3.1 3.4 3.5.1.4v9.4986929l-.4955068.5013071zm8.5-.9995055v-8.0004945h-4v-4h-4v12.0004945zm-4.97867966-6.0004945.70710678.70710678-1.40742712 1.40689322 1.40742712 1.4073203-.70710678.7071068-2.11432034-2.1144271zm1.98578644 0 2.12132032 2.1071068-2.12132032 2.1213203-.70710678-.7071068 1.407-1.4073203-1.407-1.40689322zm-.00710678-6 2.903 3h-2.903z" fill="#424242" fill-rule="evenodd"/></svg>

<?xml version="1.0" encoding="UTF-8"?>
<svg width="16px" height="16px" viewBox="0 0 16 16" version="1.1" xmlns="http://www.w3.org/2000/svg" xmlns:xlink="http://www.w3.org/1999/xlink">
    <title>Artboard</title>
    <g stroke="none" stroke-width="1" fill="none" fill-rule="evenodd">
        <path d="M3.5,15 L3,14.4979736 L3,1.5 L3.5,1 L9.2,1 L9.5,1.1 L12.9,4.6 L13,5 L13,14.4986929 L12.5044932,15 L3.5,15 Z M12,14.0004945 L12,6 L8,6 L8,2 L4,2 L4,14.0004945 L12,14.0004945 Z M7.02132034,8 L7.72842712,8.70710678 L6.321,10.114 L7.72842712,11.5213203 L7.02132034,12.2284271 L4.907,10.114 L7.02132034,8 Z M9.00710678,8 L11.1284271,10.1071068 L9.00710678,12.2284271 L8.3,11.5213203 L9.707,10.114 L8.3,8.70710678 L9.00710678,8 Z M9,2 L11.903,5 L9,5 L9,2 Z" fill="#424242"></path>
    </g>
</svg>
